assets/layers/bicycle_tube_vending_machine/pinIcon.svg

<?xml version="1.0" encoding="UTF-8" standalone="no"?>
<!-- Created with Inkscape (http://www.inkscape.org/) -->

<svg
        xmlns:dc="http://purl.org/dc/elements/1.1/"
        xmlns:cc="http://creativecommons.org/ns#"
        xmlns:rdf="http://www.w3.org/1999/02/22-rdf-syntax-ns#"
        xmlns:sodipodi="http://sodipodi.sourceforge.net/DTD/sodipodi-0.dtd"
        xmlns:inkscape="http://www.inkscape.org/namespaces/inkscape"
        xmlns="http://www.w3.org/2000/svg"
        width="25.929167mm"
        height="30.958698mm"
        viewBox="0 0 25.929167 30.958698"
        version="1.1"
        id="svg8"
        inkscape:version="0.92.5 (2060ec1f9f, 2020-04-08)"
        sodipodi:docname="pinIcon.svg">
    <defs
            id="defs2">
        <filter
                style="color-interpolation-filters:sRGB"
                filterUnits="userSpaceOnUse"
                height="63"
                width="67"
                y="23"
                x="16"
                id="filter0_d">
            <feFlood
                    id="feFlood10"
                    result="BackgroundImageFix"
                    flood-opacity="0"/>
            <feColorMatrix
                    id="feColorMatrix12"
                    values="0 0 0 0 0 0 0 0 0 0 0 0 0 0 0 0 0 0 127 0"
                    type="matrix"
                    in="SourceAlpha"/>
            <feOffset
                    id="feOffset14"
                    dy="4"/>
            <feGaussianBlur
                    id="feGaussianBlur16"
                    stdDeviation="2"/>
            <feColorMatrix
                    id="feColorMatrix18"
                    values="0 0 0 0 0 0 0 0 0 0 0 0 0 0 0 0 0 0 0.25 0"
                    type="matrix"/>
            <feBlend
                    id="feBlend20"
                    result="effect1_dropShadow"
                    in2="BackgroundImageFix"
                    mode="normal"/>
            <feBlend
                    id="feBlend22"
                    result="shape"
                    in2="effect1_dropShadow"
                    in="SourceGraphic"
                    mode="normal"/>
        </filter>
        <filter
                style="color-interpolation-filters:sRGB"
                filterUnits="userSpaceOnUse"
                height="63"
                width="67"
                y="23"
                x="16"
                id="filter0_d-3">
            <feFlood
                    id="feFlood10-6"
                    result="BackgroundImageFix"
                    flood-opacity="0"/>
            <feColorMatrix
                    id="feColorMatrix12-7"
                    values="0 0 0 0 0 0 0 0 0 0 0 0 0 0 0 0 0 0 127 0"
                    type="matrix"
                    in="SourceAlpha"/>
            <feOffset
                    id="feOffset14-5"
                    dy="4"/>
            <feGaussianBlur
                    id="feGaussianBlur16-3"
                    stdDeviation="2"/>
            <feColorMatrix
                    id="feColorMatrix18-5"
                    values="0 0 0 0 0 0 0 0 0 0 0 0 0 0 0 0 0 0 0.25 0"
                    type="matrix"/>
            <feBlend
                    id="feBlend20-6"
                    result="effect1_dropShadow"
                    in2="BackgroundImageFix"
                    mode="normal"/>
            <feBlend
                    id="feBlend22-2"
                    result="shape"
                    in2="effect1_dropShadow"
                    in="SourceGraphic"
                    mode="normal"/>
        </filter>
    </defs>
    <sodipodi:namedview
            id="base"
            pagecolor="#ffffff"
            bordercolor="#666666"
            borderopacity="1.0"
            inkscape:pageopacity="0.0"
            inkscape:pageshadow="2"
            inkscape:zoom="8.1303907"
            inkscape:cx="36.194774"
            inkscape:cy="71.950763"
            inkscape:document-units="mm"
            inkscape:current-layer="layer1"
            showgrid="false"
            showguides="true"
            inkscape:guide-bbox="true"
            inkscape:object-nodes="false"
            inkscape:snap-nodes="false"
            inkscape:snap-others="false"
            inkscape:window-width="1920"
            inkscape:window-height="999"
            inkscape:window-x="0"
            inkscape:window-y="0"
            inkscape:window-maximized="1">
        <sodipodi:guide
                position="27.966223,64.089257"
                orientation="1,0"
                id="guide839"
                inkscape:locked="false"/>
        <sodipodi:guide
                position="33.524427,68.420967"
                orientation="0,1"
                id="guide841"
                inkscape:locked="false"/>
    </sodipodi:namedview>
    <metadata
            id="metadata5">
        <rdf:RDF>
            <cc:Work
                    rdf:about="">
                <dc:format>image/svg+xml</dc:format>
                <dc:type
                        rdf:resource="http://purl.org/dc/dcmitype/StillImage"/>
                <dc:title/>
            </cc:Work>
        </rdf:RDF>
    </metadata>
    <g
            inkscape:label="Layer 1"
            inkscape:groupmode="layer"
            id="layer1"
            transform="translate(-21.083817,-224.56459)">
        <path
                style="fill:none;fill-opacity:1;stroke:#000000;stroke-width:0.82687008;stroke-linecap:round;stroke-linejoin:round;stroke-miterlimit:4;stroke-dasharray:none;stroke-opacity:1"
                d="m 41.280692,238.51613 c 0,0.53966 -0.617389,0.97866 -1.385942,0.99147 -0.01148,2e-4 -10.875298,2.6e-4 -10.886847,2.6e-4 -0.784514,0 -1.420488,-0.44403 -1.420489,-0.99176 1e-6,-0.54772 0.635975,-0.99175 1.420489,-0.99175 0.01545,0 10.883142,1.6e-4 10.898474,3.6e-4 0.763143,0.0171 1.374315,0.45432 1.374316,0.99127 z"
                id="path837"
                inkscape:connector-curvature="0"
                sodipodi:nodetypes="csscsscc"
                inkscape:export-xdpi="244.98"
                inkscape:export-ydpi="244.98"/>
        <path
                style="fill:none;fill-opacity:1;stroke:#000000;stroke-width:0.82687008;stroke-linecap:round;stroke-linejoin:round;stroke-miterlimit:4;stroke-dasharray:none;stroke-opacity:1"
                d="m 43.665973,238.47977 c -1e-6,1.55949 -1.353853,2.82693 -3.035183,2.85428 -0.01846,3e-4 -12.607711,4e-4 -12.626255,4e-4 -1.706945,0 -3.090699,-1.2781 -3.0907,-2.85472 -10e-7,-1.57662 1.383754,-2.85476 3.0907,-2.85476 0.02273,0 12.616119,2.3e-4 12.638718,8.8e-4 1.675556,0.0334 3.02272,1.2984 3.02272,2.85405 z"
                id="path847"
                inkscape:connector-curvature="0"
                sodipodi:nodetypes="ssssssss"
                inkscape:export-xdpi="244.98"
                inkscape:export-ydpi="244.98"/>
        <path
                style="fill:none;fill-opacity:1;stroke:#000000;stroke-width:0.82687008;stroke-linecap:round;stroke-linejoin:round;stroke-miterlimit:4;stroke-dasharray:none;stroke-opacity:1"
                d="m 46.014735,238.47978 c -2e-6,2.69259 -2.168416,4.87871 -4.854222,4.90735 -0.01778,2e-4 -13.766963,2.8e-4 -13.784791,2.8e-4 -2.710414,0 -4.907638,-2.19723 -4.90764,-4.90763 -10e-7,-2.7104 2.197224,-4.90763 4.90764,-4.90763 0.02907,0 13.789453,2.4e-4 13.818401,9.3e-4 2.670264,0.0465 4.820613,2.22555 4.820612,4.90689 z"
                id="path849"
                inkscape:connector-curvature="0"
                sodipodi:nodetypes="sssssss"
                inkscape:export-xdpi="244.98"
                inkscape:export-ydpi="244.98"/>
        <rect
                style="fill:#000000;fill-opacity:1;stroke:#ffffff;stroke-width:0.23621552;stroke-linecap:round;stroke-linejoin:round;stroke-miterlimit:4;stroke-dasharray:none;stroke-opacity:1"
                id="rect910"
                width="2.2565947"
                height="11.358825"
                x="37.684917"
                y="232.82724"
                inkscape:export-xdpi="244.98"
                inkscape:export-ydpi="244.98"/>
        <rect
                style="fill:#000000;fill-opacity:1;stroke:none;stroke-width:1.0892781;stroke-linecap:round;stroke-linejoin:round;stroke-miterlimit:4;stroke-dasharray:none;stroke-opacity:1"
                id="rect924"
                width="0.79356372"
                height="5.3985114"
                x="34.012344"
                y="227.07784"
                inkscape:export-xdpi="244.98"
                inkscape:export-ydpi="244.98"/>
    </g>
</svg>

<?xml version="1.0" encoding="UTF-8" standalone="yes"?>
<svg xmlns="http://www.w3.org/2000/svg" xmlns:xlink="http://www.w3.org/1999/xlink" width="313px" height="374px" viewBox="0 0 313 374" version="1.1">
  <g id="surface1">
    <path style="fill:none;stroke-width:0.82687;stroke-linecap:round;stroke-linejoin:round;stroke:rgb(0%,0%,0%);stroke-opacity:1;stroke-miterlimit:4;" d="M 41.280465 238.515911 C 41.280465 239.055692 40.663043 239.49477 39.894824 239.507722 C 39.883498 239.508046 29.019382 239.508046 29.007732 239.508046 C 28.223333 239.508046 27.587466 239.063787 27.587466 238.515911 C 27.587466 237.968359 28.223333 237.524424 29.007732 237.524424 C 29.023265 237.524424 39.891264 237.524424 39.906473 237.524748 C 40.669515 237.541586 41.280465 237.979045 41.280465 238.515911 Z M 41.280465 238.515911 " transform="matrix(12.071348,0,0,12.063634,-254.510092,-2708.802357)"/>
    <path style="fill:none;stroke-width:0.82687;stroke-linecap:round;stroke-linejoin:round;stroke:rgb(0%,0%,0%);stroke-opacity:1;stroke-miterlimit:4;" d="M 43.666021 238.479645 C 43.666021 240.039408 42.312092 241.306452 40.630683 241.334299 C 40.612238 241.334623 28.023351 241.334623 28.004582 241.334623 C 26.297285 241.334623 24.913909 240.056246 24.913909 238.479645 C 24.913909 236.903045 26.297285 235.624991 28.004582 235.624991 C 28.027557 235.624991 40.620652 235.625315 40.643303 235.625963 C 42.318888 235.659315 43.666021 236.924092 43.666021 238.479969 Z M 43.666021 238.479645 " transform="matrix(12.071348,0,0,12.063634,-254.510092,-2708.802357)"/>
    <path style="fill:none;stroke-width:0.82687;stroke-linecap:round;stroke-linejoin:round;stroke:rgb(0%,0%,0%);stroke-opacity:1;stroke-miterlimit:4;" d="M 46.014687 238.479645 C 46.014687 241.172397 43.846265 243.358396 41.160411 243.387215 C 41.142613 243.387538 27.393308 243.387538 27.375833 243.387538 C 24.665063 243.387538 22.468164 241.189882 22.468164 238.479645 C 22.468164 235.769408 24.665063 233.572399 27.375833 233.572399 C 27.404633 233.572399 41.164941 233.572399 41.194389 233.573371 C 43.864386 233.619675 46.014687 235.79855 46.014687 238.479969 Z M 46.014687 238.479645 " transform="matrix(12.071348,0,0,12.063634,-254.510092,-2708.802357)"/>
    <path style="fill-rule:nonzero;fill:rgb(0%,0%,0%);fill-opacity:1;stroke-width:0.236216;stroke-linecap:round;stroke-linejoin:round;stroke:rgb(100%,100%,100%);stroke-opacity:1;stroke-miterlimit:4;" d="M 37.684981 232.827003 L 39.941422 232.827003 L 39.941422 244.186039 L 37.684981 244.186039 Z M 37.684981 232.827003 " transform="matrix(12.071348,0,0,12.063634,-254.510092,-2708.802357)"/>
    <path style=" stroke:none;fill-rule:nonzero;fill:rgb(0%,0%,0%);fill-opacity:1;" d="M 156.066406 30.582031 L 165.640625 30.582031 L 165.640625 95.710938 L 156.066406 95.710938 Z M 156.066406 30.582031 "/>
  </g>
</svg>
